X:1
T:Hughie Travers
M:C
L:1/8
Q:80
C:Arr. by T. Tully
S:Reel
K:HP
[| f|
{g}ec{g}c{G}c{g}c{G}c{g}Ac|
{gef}ec{G}Ac{gBd}BAG{d}B|
{G}A2{gcd}ce"flick"a3g|  !
af{g}ec{g}B{G}B{G}Af{g}ec{g}c{G}c{g}c{G}c{g}Ac|
{gef}ec{G}Ac{gBd}BAG{d}B|
{G}A2{gcd}ce"flick"a3g|  !
af{g}ec{G}A3|] [|
B|
{g}ce{g}e{A}e{g}fe{g}ce|
aA{a}gA{g}feae|  !
{g}ce{g}e{A}e{g}fe{g}ce|
af{g}ec{g}B{G}BAB{g}ce{g}e{A}e{g}fe{g}ce|
aA{a}gA{g}feae|  !
{g}ce{g}e{A}e{g}fe{g}ce|
af{g}ec{G}A3|]

